COLOR/action 16/16/edit-paste.svg

<svg height="16" width="16" xmlns="http://www.w3.org/2000/svg" xmlns:xlink="http://www.w3.org/1999/xlink"><linearGradient id="a" gradientTransform="matrix(0 -.03089488 .02703226 0 2.577424 17.386363)" gradientUnits="userSpaceOnUse" x1="459.03448" x2="35.310345" y1="419.23337" y2="207.36522"><stop offset="0" stop-color="#f2f2f2"/><stop offset="1" stop-color="#f9f9f9"/></linearGradient><rect fill="#6c6c6c" height="13" rx=".53292" ry=".531462" width="10" y="2"/><path d="m.5332031 2c-.29523742 0-.5332031.2368201-.5332031.53125v.5c0-.2944299.23796568-.53125.5332031-.53125h8.9335939c.295237 0 .533203.2368201.533203.53125v-.5c0-.2944299-.237966-.53125-.533203-.53125z" fill="#fff" opacity=".3"/><path d="m3.3872353.0603857c.5375883 1.6127648-.1091627 2.0299333-1.0751765 2.1366982v1.1029161l5.3758824-.0140545v-1.0751768c-1.3339715.0066802-1.6127647-.5375881-1.0751766-2.1503529h-3.2255293z" fill="#7e2c50"/><path d="m9.466797 15c.295237 0 .533203-.23682.533203-.53125v-.5c0 .29443-.237966.53125-.533203.53125h-8.933594c-.29523702 0-.533203-.23682-.533203-.53125v.5c0 .29443.23796598.53125.533203.53125z" opacity=".2"/><path d="m9.0733461 3.749998c-2.1057675 0-2.3323433.2471914-2.3220225 2.6586513v3.3413482 3.3413495c-.01035 2.411459.216255 2.658651 2.3220225 2.658651h4.3556249c2.105775 0 2.32203-.247156 2.32203-2.658651v-3.3413495-3.3413482c0-2.4114855-.216263-2.6586513-2.32203-2.6586513z" fill="url(#a)" stroke-width=".945682"/><path d="m9.0732656 3.499998c-.531333 0-.950263.013208-1.2988281.080078s-.6392406.1965115-.84375.4296875c-.4090187.4663522-.4348816 1.1867946-.4296875 2.4003907v3.3398438 3.341797c-.00516 1.211862.020987 1.932453.4296875 2.398437.2045116.233176.4951829.362818.84375.429688s.7674951.08008 1.2988281.08008h4.3554684c.531335 0 .95096-.01318 1.298828-.08008.347869-.0669.636125-.196472.839844-.429688.407438-.466431.433594-1.185217.433594-2.398437v-3.341797-3.3417969c0-1.2132161-.026155-1.9320051-.433594-2.3984375-.203719-.2332162-.491975-.3627837-.839844-.4296875-.347868-.0669037-.767495-.0800781-1.298828-.0800781zm0 .5h4.3554684c.521551 0 .92015.017467 1.205078.072266.284929.054799.443074.1375672.556641.2675782.227135.2600215.310547.8700895.310547 2.0683589v3.3417969 3.341797c0 1.198274-.08341 1.808339-.310547 2.068359-.113566.13001-.271712.21278-.556641.267578-.284928.0548-.683524.07227-1.205078.07227h-4.3554684c-.5215507 0-.9192331-.01743-1.2050781-.07227s-.44648-.137523-.5605469-.267578c-.2281337-.260109-.3117818-.870497-.3066406-2.068359v-3.341797-3.3417969c-.0051267-1.1978638.0785098-1.8082508.3066406-2.0683593.1140654-.1300543.2747044-.2127414.5605469-.2675782s.6835274-.0722656 1.2050781-.0722656z" fill="#6c6c6c"/><path d="m3.3867188.06054687c.0610033.18301005.1029992.34648741.1347656.50000001h2.9433594c.0395077-.15536812.087846-.31822564.1484374-.50000001zm.1660156 1.22656253c-.0996416.6180016-.5923005.8385459-1.2402344.9101562v.5c.7980326-.0881994 1.3656827-.3992267 1.2402344-1.4101562zm2.828125.2167968c-.1151525.8846218.2793941 1.2121755 1.3066406 1.2070313v-.5c-.8034544.0040235-1.2165805-.1982392-1.3066406-.7070313z" fill="#fff" opacity=".3"/><path d="m3.3867188.06054687c.0934818.28044544.1396094.51376776.1660156.72656251.0320578-.19883038.0291594-.43463122-.03125-.72656251zm3.078125 0c-.0998957.39284973-.1265976.70261739-.0839844.94335933.0343833-.26413874.1088122-.57253032.2324218-.94335933zm1.2226562 2.72460933-5.375.015625v.5l5.375-.015625z" opacity=".2"/></svg>

<?xml version="1.0" encoding="UTF-8" standalone="no"?>
<svg
   xmlns:dc="http://purl.org/dc/elements/1.1/"
   xmlns:cc="http://creativecommons.org/ns#"
   xmlns:rdf="http://www.w3.org/1999/02/22-rdf-syntax-ns#"
   xmlns:svg="http://www.w3.org/2000/svg"
   xmlns="http://www.w3.org/2000/svg"
   xmlns:sodipodi="http://sodipodi.sourceforge.net/DTD/sodipodi-0.dtd"
   xmlns:inkscape="http://www.inkscape.org/namespaces/inkscape"
   height="16"
   width="16"
   version="1.1"
   id="svg19"
   sodipodi:docname="edit-paste.svg"
   inkscape:version="0.92.4 (5da689c313, 2019-01-14)">
  <metadata
     id="metadata25">
    <rdf:RDF>
      <cc:Work
         rdf:about="">
        <dc:format>image/svg+xml</dc:format>
        <dc:type
           rdf:resource="http://purl.org/dc/dcmitype/StillImage" />
        <dc:title />
      </cc:Work>
    </rdf:RDF>
  </metadata>
  <defs
     id="defs23" />
  <sodipodi:namedview
     pagecolor="#ffffff"
     bordercolor="#666666"
     borderopacity="1"
     objecttolerance="10"
     gridtolerance="10"
     guidetolerance="10"
     inkscape:pageopacity="0"
     inkscape:pageshadow="2"
     inkscape:window-width="1920"
     inkscape:window-height="1016"
     id="namedview21"
     showgrid="true"
     inkscape:zoom="52.4375"
     inkscape:cx="0.69606677"
     inkscape:cy="6.2308145"
     inkscape:window-x="0"
     inkscape:window-y="27"
     inkscape:window-maximized="1"
     inkscape:current-layer="svg19">
    <inkscape:grid
       type="xygrid"
       id="grid848" />
  </sodipodi:namedview>
  <linearGradient
     id="a"
     gradientTransform="matrix(0,-0.03089488,0.02703226,0,2.577424,17.386363)"
     gradientUnits="userSpaceOnUse"
     x1="459.03448"
     x2="35.310345"
     y1="419.23337"
     y2="207.36522">
    <stop
       offset="0"
       stop-color="#f2f2f2"
       id="stop2" />
    <stop
       offset="1"
       stop-color="#f9f9f9"
       id="stop4" />
  </linearGradient>
  <rect
     style="opacity:1;fill:#6c6c6c;fill-opacity:1;stroke:none;stroke-width:0.31931418;stroke-linecap:round;stroke-miterlimit:4;stroke-dasharray:none"
     id="rect850"
     width="10"
     height="13"
     x="0"
     y="2"
     rx="0.53291959"
     ry="0.53146195" />
  <path
     style="opacity:0.3;fill:#ffffff;fill-opacity:1;stroke:none;stroke-width:0.31931418;stroke-linecap:round;stroke-miterlimit:4;stroke-dasharray:none"
     d="M 0.5332031,2 C 0.23796568,2 0,2.2368201 0,2.53125 v 0.5 C 0,2.7368201 0.23796568,2.5 0.5332031,2.5 H 9.466797 C 9.762034,2.5 10,2.7368201 10,3.03125 v -0.5 C 10,2.2368201 9.762034,2 9.466797,2 Z"
     id="rect864"
     inkscape:connector-curvature="0" />
  <path
     d="M 3.3872353,0.0603857 C 3.9248236,1.6731505 3.2780726,2.090319 2.3120588,2.1970839 V 3.3 L 7.6879412,3.2859455 V 2.2107687 C 6.3539697,2.2174489 6.0751765,1.6731806 6.6127646,0.0604158 H 3.3872353 Z"
     id="path11"
     style="fill:#7e2c50;fill-opacity:1"
     inkscape:connector-curvature="0" />
  <path
     id="path869"
     d="M 9.466797,15 C 9.762034,15 10,14.76318 10,14.46875 v -0.5 C 10,14.26318 9.762034,14.5 9.466797,14.5 H 0.533203 C 0.23796598,14.5 0,14.26318 0,13.96875 v 0.5 C 0,14.76318 0.23796598,15 0.533203,15 Z"
     style="opacity:0.2;fill:#000000;fill-opacity:1;stroke:none;stroke-width:0.31931418;stroke-linecap:round;stroke-miterlimit:4;stroke-dasharray:none"
     inkscape:connector-curvature="0" />
  <path
     d="m 9.0733461,3.749998 c -2.1057675,0 -2.3323433,0.2471914 -2.3220225,2.6586513 v 3.3413482 3.3413495 c -0.01035,2.411459 0.216255,2.658651 2.3220225,2.658651 h 4.3556249 c 2.105775,0 2.32203,-0.247156 2.32203,-2.658651 V 9.7499975 6.4086493 c 0,-2.4114855 -0.216263,-2.6586513 -2.32203,-2.6586513 z"
     id="path15"
     style="fill:url(#a);stroke-width:0.94568235"
     inkscape:connector-curvature="0" />
  <path
     style="color:#000000;font-style:normal;font-variant:normal;font-weight:normal;font-stretch:normal;font-size:medium;line-height:normal;font-family:sans-serif;font-variant-ligatures:normal;font-variant-position:normal;font-variant-caps:normal;font-variant-numeric:normal;font-variant-alternates:normal;font-feature-settings:normal;text-indent:0;text-align:start;text-decoration:none;text-decoration-line:none;text-decoration-style:solid;text-decoration-color:#000000;letter-spacing:normal;word-spacing:normal;text-transform:none;writing-mode:lr-tb;direction:ltr;text-orientation:mixed;dominant-baseline:auto;baseline-shift:baseline;text-anchor:start;white-space:normal;shape-padding:0;clip-rule:nonzero;display:inline;overflow:visible;visibility:visible;opacity:1;isolation:auto;mix-blend-mode:normal;color-interpolation:sRGB;color-interpolation-filters:linearRGB;solid-color:#000000;solid-opacity:1;vector-effect:none;fill:#6c6c6c;fill-opacity:1;fill-rule:nonzero;stroke:none;stroke-width:0.5;stroke-linecap:butt;stroke-linejoin:miter;stroke-miterlimit:4;stroke-dasharray:none;stroke-dashoffset:0;stroke-opacity:1;color-rendering:auto;image-rendering:auto;shape-rendering:auto;text-rendering:auto;enable-background:accumulate"
     d="m 9.0732656,3.499998 c -0.531333,0 -0.950263,0.013208 -1.2988281,0.080078 C 7.4258724,3.646946 7.1351969,3.7765875 6.9306875,4.0097635 6.5216688,4.4761157 6.4958059,5.1965581 6.501,6.4101542 v 3.3398438 3.341797 c -0.00516,1.211862 0.020987,1.932453 0.4296875,2.398437 0.2045116,0.233176 0.4951829,0.362818 0.84375,0.429688 C 8.1230046,15.98679 8.5419326,16 9.0732656,16 h 4.3554684 c 0.531335,0 0.95096,-0.01318 1.298828,-0.08008 0.347869,-0.0669 0.636125,-0.196472 0.839844,-0.429688 C 15.974844,15.023801 16.001,14.305015 16.001,13.091795 V 9.749998 6.4082011 C 16.001,5.194985 15.974845,4.476196 15.567406,4.0097636 15.363687,3.7765474 15.075431,3.6469799 14.727562,3.5800761 14.379694,3.5131724 13.960067,3.499998 13.428734,3.499998 Z m 0,0.5 h 4.3554684 c 0.521551,0 0.92015,0.017467 1.205078,0.072266 0.284929,0.054799 0.443074,0.1375672 0.556641,0.2675782 C 15.417588,4.5998637 15.501,5.2099317 15.501,6.4082011 v 3.3417969 3.341797 c 0,1.198274 -0.08341,1.808339 -0.310547,2.068359 -0.113566,0.13001 -0.271712,0.21278 -0.556641,0.267578 -0.284928,0.0548 -0.683524,0.07227 -1.205078,0.07227 H 9.0732656 c -0.5215507,0 -0.9192331,-0.01743 -1.2050781,-0.07227 -0.285845,-0.05484 -0.44648,-0.137523 -0.5605469,-0.267578 C 7.0795069,14.900045 6.9958588,14.289657 7.001,13.091795 V 9.749998 6.4082011 C 6.9958733,5.2103373 7.0795098,4.5999503 7.3076406,4.3398418 7.421706,4.2097875 7.582345,4.1271004 7.8681875,4.0722636 8.15403,4.0174268 8.5517149,3.999998 9.0732656,3.999998 Z"
     id="path852"
     inkscape:connector-curvature="0" />
  <path
     style="opacity:0.3;fill:#ffffff;fill-opacity:1"
     d="M 3.3867188,0.06054687 C 3.4477221,0.24355692 3.489718,0.40703428 3.5214844,0.56054688 H 6.4648438 C 6.5043515,0.40517876 6.5526898,0.24232124 6.6132812,0.06054687 Z M 3.5527344,1.2871094 C 3.4530928,1.905111 2.9604339,2.1256553 2.3125,2.1972656 v 0.5 C 3.1105326,2.6090662 3.6781827,2.2980389 3.5527344,1.2871094 Z m 2.828125,0.2167968 C 6.2657069,2.388528 6.6602535,2.7160817 7.6875,2.7109375 v -0.5 C 6.8840456,2.214961 6.4709195,2.0126983 6.3808594,1.5039062 Z"
     id="path854"
     inkscape:connector-curvature="0" />
  <path
     style="opacity:0.2;fill:#000000;fill-opacity:1"
     d="M 3.3867188,0.06054687 C 3.4802006,0.34099231 3.5263282,0.57431463 3.5527344,0.78710938 3.5847922,0.588279 3.5818938,0.35247816 3.5214844,0.06054687 Z m 3.078125,0 C 6.3649481,0.4533966 6.3382462,0.76316426 6.3808594,1.0039062 6.4152427,0.73976746 6.4896716,0.43137588 6.6132812,0.06054687 Z M 7.6875,2.7851562 2.3125,2.8007812 v 0.5 l 5.375,-0.015625 z"
     id="path859"
     inkscape:connector-curvature="0" />
</svg>
